svgs/sharp-light/lock-keyhole.svg

<svg xmlns="http://www.w3.org/2000/svg" viewBox="0 0 448 512"><!--! Font Awesome Pro 6.6.0 by @fontawesome - https://fontawesome.com License - https://fontawesome.com/license (Commercial License) Copyright 2024 Fonticons, Inc. --><path d="M224 32c53 0 96 43 96 96l0 64-192 0 0-64c0-53 43-96 96-96zM96 128l0 64-64 0L0 192l0 32L0 480l0 32 32 0 384 0 32 0 0-32 0-256 0-32-32 0-64 0 0-64C352 57.3 294.7 0 224 0S96 57.3 96 128zM32 224l384 0 0 256L32 480l0-256zm208 88l0-16-32 0 0 16 0 80 0 16 32 0 0-16 0-80z"/></svg>

<svg xmlns="http://www.w3.org/2000/svg" viewBox="0 0 448 512"><!--! Font Awesome Pro 6.4.0 by @fontawesome - https://fontawesome.com License - https://fontawesome.com/license (Commercial License) Copyright 2023 Fonticons, Inc. --><path d="M224 32c53 0 96 43 96 96v64H128V128c0-53 43-96 96-96zM96 128v64H32 0v32V480v32H32 416h32V480 224 192H416 352V128C352 57.3 294.7 0 224 0S96 57.3 96 128zM32 224H416V480H32V224zm208 88V296H208v16 80 16h32V392 312z"/></svg>
